nord_icons/symbolic/actions/format-text-bold-symbolic.svg

<?xml version="1.0" encoding="UTF-8"?>
<svg height="16px" viewBox="0 0 16 16" width="16px" xmlns="http://www.w3.org/2000/svg">
    <path d="m 4 3 v 2 h 5 c 0.429688 0 1 0.613281 1 1 v 1 h -5 c -0.917969 0 -1.734375 0.378906 -2.25 0.964844 c -0.515625 0.585937 -0.742188 1.324218 -0.738281 2.046875 c 0.007812 0.71875 0.246093 1.445312 0.757812 2.027343 c 0.515625 0.578126 1.320313 0.960938 2.230469 0.960938 h 9 v -7 c 0 -1.632812 -1.320312 -3 -3 -3 z m 3 6 h 3 v 2 h -3 c -0.398438 0 -0.578125 -0.117188 -0.730469 -0.289062 c -0.152343 -0.167969 -0.253906 -0.441407 -0.257812 -0.722657 c 0 -0.277343 0.09375 -0.539062 0.238281 -0.703125 c 0.148438 -0.164062 0.328125 -0.285156 0.75 -0.285156 z m 0 0" fill="#2e3436"/>
</svg>

<svg xmlns="http://www.w3.org/2000/svg" width="16" height="16" version="1.1">
 <path style="fill:#9aa2af" d="M 14,6 C 14,4.37 12.68,3 11,3 H 4 V 5 H 9 C 9.43,5 10,5.61 10,6 V 7 H 5 C 4.08,7 3.26,7.38 2.75,7.97 2.24,8.55 1.99,9.28 2,10 2.01,10.72 2.27,11.45 2.78,12.03 3.29,12.61 4.09,13 5,13 H 14 M 7,9 H 10 V 11 H 7 C 6.6,11 6.43,10.89 6.28,10.72 6.13,10.55 6,10.28 6,10 6,9.72 6.1,9.45 6.25,9.28 6.4,9.12 6.58,9 7,9 Z"/>
</svg>
